icons/mobile/24/svg/autoplay-24.svg

<svg width="24" height="24" viewBox="0 0 24 24" fill="none" xmlns="http://www.w3.org/2000/svg">
<path d="M10.3751 2C10.7201 2 11.0001 2.28 11.0001 2.625V6.99902C11.0001 7.55601 10.3267 7.8354 9.93271 7.44141L8.4122 5.9209C6.21561 7.2895 4.7501 9.72619 4.75009 12.5C4.75009 16.85 8.35159 20.3741 12.7296 20.2471C16.6884 20.1329 20.0214 16.8904 20.2384 12.9355C20.4521 9.05094 17.7853 5.74453 14.1847 4.94336C13.7927 4.85536 13.5001 4.52993 13.5001 4.12793V4.0293C13.5001 3.4963 13.9976 3.1038 14.5186 3.2168C18.7904 4.14494 22.0001 7.95415 22.0001 12.5C22.0001 17.8389 17.5723 22.164 12.1964 21.9951C7.1324 21.8361 2.97712 17.523 3.00009 12.4561C3.01461 9.21888 4.65934 6.36371 7.15342 4.66211L5.55967 3.06738C5.16569 2.67341 5.44415 2.00009 6.00107 2H10.3751Z" fill="black"/>
<path d="M10.297 10.1318C10.2971 9.26392 11.2354 8.72041 11.9884 9.15039L16.1329 11.5176C16.8919 11.9516 16.8919 13.0474 16.1329 13.4814L11.9884 15.8486C11.2344 16.2786 10.2971 15.7351 10.297 14.8682V10.1318Z" fill="black"/>
</svg>

<!-- This Source Code Form is subject to the terms of the Mozilla Public
   - License, v. 2.0. If a copy of the MPL was not distributed with this
   - file, You can obtain one at http://mozilla.org/MPL/2.0/. -->
<svg xmlns="http://www.w3.org/2000/svg" width="24" height="24" fill="none" viewBox="0 0 24 24">
    <path fill="#000" d="M10.375 2c.345 0 .625.28.625.625v4.374a.625.625 0 0 1-1.067.442l-1.52-1.52A7.75 7.75 0 0 0 4.75 12.5c0 4.35 3.602 7.874 7.98 7.747 3.958-.114 7.291-3.357 7.508-7.312.214-3.884-2.453-7.19-6.053-7.992-.392-.088-.685-.413-.685-.815v-.099a.837.837 0 0 1 1.019-.812C18.79 4.145 22 7.954 22 12.5c0 5.339-4.428 9.664-9.804 9.495-5.064-.159-9.219-4.472-9.196-9.539a9.48 9.48 0 0 1 4.153-7.794L5.56 3.067A.625.625 0 0 1 6 2z" />
    <path fill="#000" d="M10.297 10.132a1.13 1.13 0 0 1 1.691-.982l4.145 2.368a1.13 1.13 0 0 1 0 1.963l-4.145 2.368a1.13 1.13 0 0 1-1.691-.98z" />
</svg>
